; generated by PrusaSlicer 2.9.2 on 2025-04-13 at 23:14:16 UTC


;
;
; 

; external perimeters extrusion width = 0.60mm
; perimeters extrusion width = 0.50mm
; infill extrusion width = 0.50mm
; solid infill extrusion width = 0.50mm
; top infill extrusion width = 0.45mm
; first layer extrusion width = 0.42mm

M73 P0 R73
M73 Q0 S73
M201 X1000 Y1000 Z200 E5000 ; sets maximum accelerations, mm/sec^2
M203 X200 Y200 Z12 E120 ; sets maximum feedrates, mm / sec
M204 S1250 T1250 ; sets acceleration (S) and retract acceleration (R), mm/sec^2
M205 X8.00 Y8.00 Z0.40 E4.50 ; sets the jerk limits, mm/sec
M205 S0 T0 ; sets the minimum extruding and travel feed rate, mm/sec

; printing object IKEA Trofast Bin to drawer bracket id:0 copy 0
; stop printing object IKEA Trofast Bin to drawer bracket id:0 copy 0

;TYPE:Custom
M862.3 P "MK3S" ; printer model check
M862.1 P0.4 ; nozzle diameter check
M115 U3.14.1 ; tell printer latest fw version
G90 ; use absolute coordinates
M83 ; extruder relative mode
M104 S200 ; set extruder temp
M140 S60 ; set bed temp
M190 S60 ; wait for bed temp
M109 S200 ; wait for extruder temp
G28 W ; home all without mesh bed level
G80 X110.246 Y95.7458 W29.5083 H18.5083 ; mesh bed levelling

G1 Z0.2 F720
G1 Y-3 F1000 ; go outside print area
G92 E0
G1 X60 E9 F1000 ; intro line
G1 X100 E12.5 F1000 ; intro line
M73 P0 R72

G92 E0
M221 S95

; Don't change E values below. Excessive value can damage the printer.

M907 E538 ; set extruder motor current
G21 ; set units to millimeters
G90 ; use absolute coordinates
M83 ; use relative distances for extrusion

M900 K0.05 ; Filament gcode LA 1.5
M900 K30 ; Filament gcode LA 1.0




M107
;LAYER_CHANGE
;Z:0.2
;HEIGHT:0.2
G1 E-1.2 F2100
G1 Z.6 F720
G1 X111.262 Y106.217 F10800
G1 Z.2 F720
G1 E1.2 F2100
M204 S800
;TYPE:Skirt/Brim
;WIDTH:0.42
G1 F1200
G1 X111.952 Y105.582 E.0294
G1 X125.015 Y96.539 E.49815
G1 X125.772 Y96.154 E.02663
G1 X126.761 Y95.943 E.03171
G1 X136 Y95.934 E.28968
G1 X136.608 Y95.988 E.01914
G1 X137.665 Y96.348 E.03501
G1 X138.283 Y96.763 E.02334
G1 X138.737 Y97.216 E.02011
G1 X139.152 Y97.835 E.02337
G1 X139.529 Y98.994 E.03821
G1 X139.529 Y111.006 E.37663
G1 X139.346 Y111.728 E.02335
G1 X139.018 Y112.397 E.02336
G1 X138.557 Y112.983 E.02338
G1 X137.985 Y113.461 E.02337
G1 X136.974 Y113.929 E.03493
G1 X136 Y114.066 E.03084
G1 X113.866 Y114.062 E.694
G1 X113.128 Y113.956 E.02338
G1 X112.337 Y113.653 E.02656
G1 X111.717 Y113.237 E.02341
G1 X111.04 Y112.486 E.0317
G1 X110.654 Y111.73 E.02661
G1 X110.472 Y111.007 E.02338
G1 X110.438 Y108.366 E.08281
G1 X110.69 Y107.176 E.03814
G1 X111.232 Y106.269 E.03313
M204 S1000
G1 X111.559 Y106.498 F10800
M204 S800
G1 F1200
G1 X111.709 Y106.284 E.00819
G1 X112.166 Y105.892 E.01888
G1 X125.308 Y96.798 E.50109
G1 X126.125 Y96.435 E.02803
M73 Q0 S72
G1 X126.885 Y96.314 E.02413
G1 X136.55 Y96.36 E.30304
G1 X137.19 Y96.543 E.02087
G1 X137.692 Y96.798 E.01765
G1 X138.216 Y97.208 E.02086
G1 X138.864 Y98.1 E.03457
G1 X139.092 Y98.725 E.02086
G1 X139.18 Y99.281 E.01765
G1 X139.156 Y110.947 E.36578
G1 X138.994 Y111.593 E.02088
G1 X138.701 Y112.192 E.02091
G1 X138.291 Y112.717 E.02089
G1 X137.692 Y113.201 E.02415
G1 X136.877 Y113.565 E.02799
G1 X136 Y113.689 E.02777
G1 X113.885 Y113.686 E.6934
G1 X113.125 Y113.565 E.02413
G1 X112.31 Y113.203 E.02796
G1 X111.784 Y112.791 E.02095
G1 X111.299 Y112.193 E.02414
G1 X111.006 Y111.595 E.02088
G1 X110.844 Y110.948 E.02091
G1 X110.82 Y108.281 E.08363
G1 X110.934 Y107.627 E.02081
G1 X111.136 Y107.101 E.01767
G1 X111.524 Y106.547 E.02121
M204 S1000
;WIPE_START
G1 F8640
G1 X111.559 Y106.498 E-.0139
G1 X111.709 Y106.284 E-.06034
G1 X112.166 Y105.892 E-.13902
G1 X115.68 Y103.46 E-.98674
;WIPE_END
G1 Z.6 F720
; printing object IKEA Trofast Bin to drawer bracket id:0 copy 0
G1 X126.741 Y106.87 F10800
G1 Z.2 F720
G1 E1.2 F2100
M204 S800
;TYPE:Perimeter
;WIDTH:0.419999
G1 F1200
G1 X126.787 Y106.507 E.01147
G1 X126.792 Y99.508 E.21945
G1 X126.876 Y99.339 E.00592
G1 X127.035 Y99.287 E.00525
G1 X135.932 Y99.292 E.27896
G1 X136.141 Y99.353 E.00683
G1 X136.213 Y99.573 E.00726
G1 X136.213 Y110.451 E.34107
G1 X136.206 Y110.528 E.00242
G1 X136.128 Y110.658 E.00475
G1 X135.965 Y110.713 E.00539
G1 X115.002 Y110.713 E.65728
G1 X114.022 Y110.712 E.03073
G1 X113.84 Y110.632 E.00623
G1 X113.787 Y110.465 E.00549
G1 X113.791 Y108.524 E.06086
G1 X113.853 Y108.355 E.00564
G1 X114.051 Y108.287 E.00656
G1 X125.006 Y108.287 E.34349
G1 X125.314 Y108.258 E.0097
G1 X125.814 Y108.086 E.01658
G1 X126.15 Y107.866 E.01259
G1 X126.409 Y107.597 E.01171
G1 X126.606 Y107.28 E.0117
G1 X126.733 Y106.929 E.0117
M204 S1000
G1 X126.377 Y106.792 F10800
M204 S800
;TYPE:External perimeter
G1 F1200
G1 X126.41 Y106.507 E.009
G1 X126.415 Y99.55 E.21813
G1 X126.496 Y99.198 E.01133
G1 X126.706 Y98.992 E.00922
G1 X127.016 Y98.91 E.01005
G1 X136.051 Y98.915 E.28329
G1 X136.365 Y99.049 E.0107
G1 X136.559 Y99.323 E.01053
G1 X136.59 Y99.573 E.0079
G1 X136.59 Y110.484 E.34211
G1 X136.506 Y110.799 E.01022
G1 X136.294 Y111.008 E.00933
G1 X135.984 Y111.09 E.01005
G1 X114.016 Y111.09 E.68879
G1 X113.707 Y111.008 E.01002
G1 X113.494 Y110.799 E.00936
G1 X113.41 Y110.484 E.01022
G1 X113.435 Y108.368 E.06635
G1 X113.567 Y108.102 E.00931
G1 X113.736 Y107.984 E.00646
G1 X114.021 Y107.91 E.00923
G1 X125.006 Y107.91 E.34443
G1 X125.274 Y107.883 E.00845
G1 X125.679 Y107.734 E.01353
G1 X125.928 Y107.561 E.00951
G1 X126.129 Y107.344 E.00927
G1 X126.279 Y107.091 E.00922
G1 X126.362 Y106.85 E.00799
M204 S1000
;WIPE_START
G1 F8640
G1 X126.377 Y106.792 E-.01383
G1 X126.41 Y106.507 E-.06625
G1 X126.413 Y101.657 E-1.11992
;WIPE_END
G1 Z.6 F720
G1 X135.277 Y99.461 F10800
G1 Z.2 F720
G1 E1.2 F2100
M204 S800
;TYPE:Solid infill
;WIDTH:0.42192
G1 F1200
G1 X135.873 Y100.057 E.02656
G1 X135.872 Y100.593 E.01689
G1 X134.91 Y99.63 E.0429
G1 X134.374 Y99.63 E.01689
G1 X135.872 Y101.128 E.06676
G1 X135.871 Y101.663 E.01686
G1 X133.838 Y99.63 E.09061
G1 X133.301 Y99.63 E.01692
G1 X135.871 Y102.199 E.11452
G1 X135.87 Y102.734 E.01686
G1 X132.765 Y99.629 E.13838
G1 X132.229 Y99.629 E.01689
G1 X135.869 Y103.27 E.16225
G1 X135.869 Y103.805 E.01686
G1 X131.693 Y99.629 E.18611
G1 X131.156 Y99.629 E.01692
G1 X135.868 Y104.34 E.20998
G1 X135.868 Y104.876 E.01689
G1 X130.62 Y99.628 E.23389
G1 X130.084 Y99.628 E.01689
G1 X135.867 Y105.411 E.25773
G1 X135.866 Y105.947 E.01689
G1 X129.548 Y99.628 E.2816
G1 X129.011 Y99.627 E.01692
G1 X135.866 Y106.482 E.30551
G1 X135.865 Y107.017 E.01686
G1 X128.475 Y99.627 E.32935
G1 X127.939 Y99.627 E.01689
G1 X135.864 Y107.553 E.35322
G1 X135.864 Y108.088 E.01686
G1 X127.402 Y99.627 E.37711
G1 X127.131 Y99.627 E.00854
G1 X127.131 Y99.891 E.00832
G1 X135.863 Y108.623 E.38916
G1 X135.863 Y109.159 E.01689
G1 X127.13 Y100.426 E.38921
G1 X127.129 Y100.961 E.01686
G1 X135.862 Y109.694 E.38921
G1 X135.861 Y110.23 E.01689
G1 X127.129 Y101.497 E.38919
G1 X127.128 Y102.032 E.01686
G1 X135.469 Y110.374 E.37176
G1 X134.933 Y110.374 E.01689
G1 X127.127 Y102.567 E.34792
G1 X127.127 Y103.103 E.01689
G1 X134.397 Y110.374 E.32403
G1 X133.861 Y110.374 E.01689
G1 X127.126 Y103.638 E.30018
G1 X127.125 Y104.173 E.01686
G1 X133.325 Y110.374 E.27634
G1 X132.789 Y110.374 E.01689
G1 X127.125 Y104.709 E.25245
G1 X127.124 Y105.244 E.01686
G1 X132.254 Y110.374 E.22863
G1 X131.718 Y110.374 E.01689
G1 X127.123 Y105.779 E.20479
G1 X127.123 Y106.315 E.01689
G1 X131.182 Y110.374 E.1809
G1 X130.646 Y110.374 E.01689
G1 X127.09 Y106.818 E.15848
G1 X127.059 Y107.025 E.0066
G1 X126.979 Y107.243 E.00732
G1 X130.11 Y110.374 E.13954
G1 X129.574 Y110.374 E.01689
G1 X126.803 Y107.603 E.1235
G1 X126.668 Y107.817 E.00797
G1 X126.576 Y107.912 E.00417
G1 X129.038 Y110.374 E.10973
G1 X128.502 Y110.374 E.01689
G1 X126.302 Y108.174 E.09805
G1 X126.135 Y108.296 E.00652
G1 X125.975 Y108.383 E.00574
G1 X127.966 Y110.374 E.08873
G1 X127.43 Y110.374 E.01689
G1 X125.591 Y108.535 E.08196
G1 X125.412 Y108.587 E.00587
G1 X125.135 Y108.614 E.00877
G1 X126.894 Y110.374 E.07842
G1 X126.358 Y110.374 E.01689
G1 X124.611 Y108.627 E.07786
G1 X124.076 Y108.627 E.01686
G1 X125.822 Y110.374 E.07784
G1 X125.286 Y110.374 E.01689
G1 X123.54 Y108.628 E.07781
G1 X123.005 Y108.628 E.01686
G1 X124.75 Y110.374 E.07779
G1 X124.214 Y110.374 E.01689
G1 X122.469 Y108.629 E.07777
G1 X121.934 Y108.63 E.01686
G1 X123.678 Y110.374 E.07773
G1 X123.142 Y110.374 E.01689
G1 X121.398 Y108.63 E.07773
G1 X120.863 Y108.631 E.01686
G1 X122.606 Y110.374 E.07768
G1 X122.07 Y110.374 E.01689
G1 X120.327 Y108.631 E.07768
G1 X119.792 Y108.632 E.01686
G1 X121.534 Y110.374 E.07764
G1 X120.998 Y110.374 E.01689
G1 X119.256 Y108.632 E.07764
G1 X118.721 Y108.633 E.01686
G1 X120.462 Y110.374 E.07759
G1 X119.926 Y110.374 E.01689
G1 X118.186 Y108.633 E.07757
G1 X117.65 Y108.634 E.01689
G1 X119.39 Y110.374 E.07755
G1 X118.854 Y110.374 E.01689
G1 X117.115 Y108.634 E.07753
G1 X116.579 Y108.635 E.01689
G1 X118.318 Y110.374 E.0775
G1 X117.782 Y110.374 E.01689
G1 X116.044 Y108.635 E.07748
G1 X115.508 Y108.636 E.01689
G1 X117.246 Y110.374 E.07746
G1 X116.71 Y110.374 E.01689
G1 X114.973 Y108.637 E.07741
G1 X114.437 Y108.637 E.01689
G1 X116.174 Y110.374 E.07741
G1 X115.638 Y110.374 E.01689
G1 X114.132 Y108.868 E.06712
G1 X114.134 Y109.406 E.01695
G1 X115.102 Y110.374 E.04314
G1 X114.566 Y110.374 E.01689
G1 X113.966 Y109.774 E.02674
M204 S1000
M106 S84.15
;LAYER_CHANGE
;Z:0.5
;HEIGHT:0.3
;BEFORE_LAYER_CHANGE
G92 E0.0
;0.5


;WIPE_START
G1 F8640
G1 X114.566 Y110.374 E-.19593
G1 X115.102 Y110.374 E-.12376
G1 X114.134 Y109.406 E-.3161
G1 X114.132 Y108.868 E-.12423
G1 X115.479 Y110.215 E-.43998
;WIPE_END
G1 Z.5 F720
;AFTER_LAYER_CHANGE
;0.5
M104 S185 ; set temperature
; stop printing object IKEA Trofast Bin to drawer bracket id:0 copy 0
G1 Z.9
G1 X110.456 Y109.819 F10800
G1 Z.5 F720
G1 E1.2 F2100
;TYPE:Skirt/Brim
;WIDTH:0.42
G1 F2700
G1 X110.438 Y108.366 E.06445
G1 X110.69 Y107.176 E.05395
G1 X111.262 Y106.217 E.04953
G1 X111.952 Y105.582 E.04159
G1 X125.015 Y96.539 E.70469
G1 X125.772 Y96.154 E.03767
G1 X126.761 Y95.943 E.04485
G1 X136 Y95.934 E.40979
G1 X136.608 Y95.988 E.02707
G1 X137.665 Y96.348 E.04953
G1 X138.283 Y96.763 E.03302
G1 X138.737 Y97.216 E.02845
G1 X139.152 Y97.835 E.03306
G1 X139.529 Y98.994 E.05406
G1 X139.529 Y111.006 E.53279
G1 X139.346 Y111.728 E.03304
G1 X139.018 Y112.397 E.03305
G1 X138.557 Y112.983 E.03307
G1 X137.985 Y113.461 E.03306
G1 X136.974 Y113.929 E.04941
G1 X136 Y114.066 E.04363
G1 X113.866 Y114.062 E.98175
G1 X113.128 Y113.956 E.03307
M73 Q1 S72
G1 X112.337 Y113.653 E.03757
G1 X111.717 Y113.237 E.03312
G1 X111.04 Y112.486 E.04485
G1 X110.654 Y111.73 E.03765
G1 X110.472 Y111.007 E.03307
G1 X110.457 Y109.879 E.05004
G1 X110.834 Y109.875 F10800
G1 F2700
G1 X110.82 Y108.281 E.0707
G1 X110.934 Y107.627 E.02945
G1 X111.136 Y107.101 E.02499
G1 X111.709 Y106.284 E.04426
G1 X112.166 Y105.892 E.02671
G1 X125.308 Y96.798 E.70886
M73 P1 R72
G1 X126.125 Y96.435 E.03965
G1 X126.885 Y96.314 E.03413
G1 X136.55 Y96.36 E.42869
G1 X137.19 Y96.543 E.02952
G1 X137.692 Y96.798 E.02497
G1 X138.216 Y97.208 E.02951
G1 X138.864 Y98.1 E.0489
G1 X139.092 Y98.725 E.02951
G1 X139.18 Y99.281 E.02497
G1 X139.156 Y110.947 E.51744
G1 X138.994 Y111.593 E.02954
G1 X138.701 Y112.192 E.02958
G1 X138.291 Y112.717 E.02955
G1 X137.692 Y113.201 E.03416
G1 X136.877 Y113.565 E.03959
G1 X136 Y113.689 E.03929
G1 X113.885 Y113.686 E.98091
G1 X113.125 Y113.565 E.03413
G1 X112.31 Y113.203 E.03955
G1 X111.784 Y112.791 E.02964
G1 X111.299 Y112.193 E.03415
G1 X111.006 Y111.595 E.02954
G1 X110.844 Y110.948 E.02958
G1 X110.835 Y109.935 E.04493
;WIPE_START
G1 F8640
G1 X110.834 Y109.875 E-.01386
G1 X110.82 Y108.281 E-.36807
G1 X110.934 Y107.627 E-.15329
G1 X111.136 Y107.101 E-.1301
G1 X111.709 Y106.284 E-.23042
G1 X112.166 Y105.892 E-.13902
G1 X112.754 Y105.485 E-.16524
;WIPE_END
G1 Z.9 F720
; printing object IKEA Trofast Bin to drawer bracket id:0 copy 0
G1 X126.719 Y106.865 F10800
G1 Z.5 F720
G1 E1.2 F2100
M204 S800
;TYPE:Perimeter
;WIDTH:0.5
G1 F3000
G1 X126.786 Y106.502 E.02006
G1 X126.789 Y99.504 E.38022
G1 X126.885 Y99.339 E.01037
G1 X127.118 Y99.286 E.01298
G1 X135.885 Y99.286 E.47634
G1 X136.056 Y99.315 E.00942
G1 X136.166 Y99.38 E.00694
G1 X136.214 Y99.585 E.01144
G1 X136.214 Y110.419 E.58864
G1 X136.128 Y110.653 E.01355
G1 X135.919 Y110.714 E.01183
G1 X114.081 Y110.714 E1.18652
G1 X113.857 Y110.635 E.01291
G1 X113.791 Y110.501 E.00812
G1 X113.791 Y108.499 E.10877
G1 X113.88 Y108.334 E.01019
G1 X114.062 Y108.286 E.01023
G1 X125.003 Y108.286 E.59446
G1 X125.436 Y108.226 E.02375
G1 X125.695 Y108.135 E.01492
G1 X126.067 Y107.92 E.02334
G1 X126.3 Y107.71 E.01704
G1 X126.553 Y107.363 E.02333
G1 X126.68 Y107.077 E.017
G1 X126.708 Y106.924 E.00845
M204 S1000
G1 X126.244 Y106.765 F10800
M204 S800
;TYPE:External perimeter
;WIDTH:0.6
G1 F2100
G1 X126.3 Y106.502 E.01796
G1 X126.3 Y99.516 E.4667
G1 X126.395 Y99.158 E.02474
G1 X126.596 Y98.934 E.02011
G1 X126.782 Y98.839 E.01395
G1 X127.087 Y98.8 E.02054
G1 X135.885 Y98.8 E.58775
G1 X136.296 Y98.869 E.02784
G1 X136.49 Y99.018 E.01634
G1 X136.662 Y99.285 E.02122
G1 F2099.973
G1 X136.7 Y99.585 E.0202
G1 X136.7 Y110.385 E.7215
G1 X136.634 Y110.782 E.02689
G1 F2100
G1 X136.521 Y110.938 E.01287
G1 X136.289 Y111.133 E.02025
G1 X135.97 Y111.2 E.02178
G1 X114.115 Y111.2 E1.46003
G1 X113.718 Y111.134 E.02689
G1 X113.597 Y111.046 E.01
G1 X113.417 Y110.865 E.01705
G1 X113.305 Y110.565 E.02139
G1 X113.305 Y108.435 E.1423
G1 X113.431 Y108.096 E.02416
G1 X113.688 Y107.887 E.02213
G1 F2099.981
G1 X114.024 Y107.8 E.02319
G1 X125.003 Y107.8 E.73346
G1 F2096.91
G1 X125.365 Y107.746 E.02445
G1 F2087.306
G1 X125.825 Y107.499 E.03488
G1 X126.189 Y107.025 E.03993
G1 F2100
G1 X126.232 Y106.823 E.0138
M204 S1000
;WIPE_START
G1 F8640
G1 X126.244 Y106.765 E-.01368
G1 X126.3 Y106.502 E-.06209
G1 X126.3 Y101.633 E-1.12423
;WIPE_END
G1 Z.9 F720
G1 X127.898 Y99.481 F10800
G1 Z.5 F720
G1 E1.2 F2100
;TYPE:Solid infill
;WIDTH:0.404381
G1 F4800
G1 X127.827 Y99.462 E.00312
G1 X127.846 Y99.533 E.00312
G1 X127.887 Y99.522 E.0018
;WIDTH:0.45219
G1 X127.789 Y99.6 E.00606
;WIDTH:0.5
G1 X127.178 Y100.19 E.04615
G1 X127.178 Y100.806 E.03347
G1 X128.306 Y99.678 E.08667
G1 X128.922 Y99.678 E.03347
G1 X127.178 Y101.422 E.13401
G1 X127.178 Y102.038 E.03347
G1 X129.538 Y99.678 E.18134
G1 X130.154 Y99.679 E.03347
G1 X127.178 Y102.654 E.22863
G1 X127.178 Y103.271 E.03352
G1 X130.77 Y99.679 E.276
G1 X131.385 Y99.679 E.03341
G1 X127.178 Y103.887 E.3233
G1 X127.178 Y104.503 E.03347
G1 X132.001 Y99.679 E.37063
G1 X132.617 Y99.679 E.03347
G1 X127.178 Y105.119 E.41796
G1 X127.178 Y105.735 E.03347
G1 X133.233 Y99.679 E.46529
G1 X133.849 Y99.68 E.03347
G1 X127.178 Y106.351 E.51259
;WIPE_START
G1 F8640
G1 X130.853 Y102.676 E-1.2
;WIPE_END
G1 Z.9 F720
G1 X126.197 Y108.14 F10800
G1 Z.5 F720
G1 E1.2 F2100
;WIDTH:0.404381
G1 F4800
G1 X126.503 Y107.849 E.01791
G1 X126.898 Y107.368 E.02639
G1 X126.897 Y107.083 E.01209
;WIDTH:0.45219
G1 X126.991 Y107.071 E.00458
;WIDTH:0.5
G1 X127.084 Y107.06 E.00509
G1 X134.465 Y99.68 E.5671
;WIPE_START
G1 F8640
G1 X130.79 Y103.355 E-1.2
;WIPE_END
G1 Z.9 F720
G1 X125.541 Y108.603 F10800
G1 Z.5 F720
G1 E1.2 F2100
G1 F4800
G1 X123.976 Y110.168 E.12025
G1 X123.976 Y110.322 E.00837
G1 X114.185 Y110.322 E.53197
G1 X114.187 Y108.688 E.08878
G1 X125 Y108.678 E.5875
G1 X125.326 Y108.634 E.01787
;WIPE_START
G1 F8640
G1 X125 Y108.678 E-.07596
G1 X120.132 Y108.683 E-1.12404
;WIPE_END
G1 Z.9 F720
G1 X124.438 Y110.322 F10800
G1 Z.5 F720
G1 E1.2 F2100
G1 F4800
G1 X135.081 Y99.68 E.81775
G1 X135.697 Y99.68 E.03347
G1 X125.054 Y110.322 E.81775
G1 X125.67 Y110.322 E.03347
G1 X135.822 Y100.17 E.78006
G1 X135.822 Y100.786 E.03347
G1 X126.286 Y110.322 E.73273
G1 X126.903 Y110.322 E.03352
G1 X135.822 Y101.403 E.68532
G1 X135.822 Y102.019 E.03347
G1 X127.519 Y110.322 E.63799
G1 X128.135 Y110.322 E.03347
G1 X135.822 Y102.635 E.59066
G1 X135.822 Y103.251 E.03347
G1 X128.751 Y110.322 E.54332
G1 X129.367 Y110.322 E.03347
G1 X135.822 Y103.867 E.49599
G1 X135.822 Y104.483 E.03347
G1 X129.983 Y110.322 E.44866
G1 X130.599 Y110.322 E.03347
G1 X135.822 Y105.099 E.40133
