; generated by PrusaSlicer 2.8.1+win64 on 2024-10-09 at 22:33:20 UTC


;
;
; 

; external perimeters extrusion width = 0.60mm
; perimeters extrusion width = 0.50mm
; infill extrusion width = 0.50mm
; solid infill extrusion width = 0.50mm
; top infill extrusion width = 0.45mm
; first layer extrusion width = 0.42mm

M73 P0 R14
M73 Q0 S14
M201 X1000 Y1000 Z200 E5000 ; sets maximum accelerations, mm/sec^2
M203 X200 Y200 Z12 E120 ; sets maximum feedrates, mm / sec
M204 S1250 T1250 ; sets acceleration (S) and retract acceleration (R), mm/sec^2
M205 X8.00 Y8.00 Z0.40 E4.50 ; sets the jerk limits, mm/sec
M205 S0 T0 ; sets the minimum extruding and travel feed rate, mm/sec

; printing object Rubbermaid Mixer Feet id:0 copy 0
; stop printing object Rubbermaid Mixer Feet id:0 copy 0

;TYPE:Custom
M862.3 P "MK3S" ; printer model check
M862.1 P0.4 ; nozzle diameter check
M115 U3.14.0 ; tell printer latest fw version
G90 ; use absolute coordinates
M83 ; extruder relative mode
M104 S225 ; set extruder temp
M140 S60 ; set bed temp
M190 S60 ; wait for bed temp
M109 S225 ; wait for extruder temp
G28 W ; home all without mesh bed level
G80 X206.306 Y15.3643 W27.5047 H27.5011 ; mesh bed levelling

G1 Z0.2 F720
G1 Y-3 F1000 ; go outside print area
G92 E0
G1 X60 E9 F1000 ; intro line
G1 X100 E12.5 F1000 ; intro line

G92 E0
M221 S95

; Don't change E values below. Excessive value can damage the printer.

M907 E538 ; set extruder motor current
G21 ; set units to millimeters
G90 ; use absolute coordinates
M83 ; use relative distances for extrusion

M900 K0.05 ; Filament gcode LA 1.5
M900 K30 ; Filament gcode LA 1.0




M107
;LAYER_CHANGE
;Z:0.2
;HEIGHT:0.2
G1 E-.8 F2100
G1 Z.6 F720
G1 X206.591 Y27.496 F10800
G1 Z.2 F720
G1 E.8 F2100
M204 S800
;TYPE:Skirt/Brim
;WIDTH:0.42
G1 F1200
G1 X206.873 Y25.931 E.05136
G1 X207.157 Y24.926 E.03373
G1 X207.735 Y23.444 E.05137
G1 X208.208 Y22.513 E.03372
G1 X209.062 Y21.171 E.05137
G1 X209.705 Y20.349 E.0337
G1 X210.802 Y19.197 E.05137
G1 X211.593 Y18.514 E.03375
G1 X212.891 Y17.596 E.05134
G1 X214.272 Y16.848 E.05072
G1 X215.406 Y16.371 E.03973
G1 X216.929 Y15.914 E.05135
G1 X217.954 Y15.712 E.03374
G1 X219.536 Y15.558 E.05133
G1 X220.581 Y15.558 E.03375
G1 X222.164 Y15.713 E.05137
G1 X223.189 Y15.914 E.03373
G1 X224.712 Y16.371 E.05135
M73 Q1 S14
G1 X226.229 Y17.035 E.05348
G1 X227.226 Y17.596 E.03695
G1 X228.525 Y18.514 E.05137
G1 X229.315 Y19.197 E.03373
G1 X230.412 Y20.349 E.05137
M73 P1 R14
G1 X231.056 Y21.171 E.03372
G1 X231.909 Y22.513 E.05135
G1 X232.382 Y23.444 E.03372
G1 X232.961 Y24.926 E.05138
G1 X233.245 Y25.931 E.03373
G1 X233.526 Y27.496 E.05135
G1 X233.611 Y28.537 E.03373
G1 X233.585 Y30.127 E.05136
G1 X233.467 Y31.165 E.03374
G1 X233.135 Y32.72 E.05135
G1 X232.818 Y33.715 E.03372
G1 X232.192 Y35.177 E.05136
G1 X231.689 Y36.093 E.03375
G1 X230.793 Y37.406 E.05134
G1 X230.123 Y38.207 E.03372
G1 X228.989 Y39.323 E.05138
G1 X228.177 Y39.98 E.03373
G1 X226.849 Y40.855 E.05136
G1 X225.926 Y41.343 E.03372
G1 X224.454 Y41.945 E.05136
G1 X223.454 Y42.246 E.03373
G1 X221.893 Y42.553 E.05138
G1 X220.854 Y42.654 E.03371
G1 X219.264 Y42.654 E.05135
G1 X218.224 Y42.553 E.03374
G1 X216.664 Y42.246 E.05135
G1 X215.663 Y41.945 E.03376
G1 X214.192 Y41.343 E.05133
G1 X213.268 Y40.855 E.03375
G1 X211.94 Y39.98 E.05136
G1 X211.128 Y39.323 E.03373
G1 X209.995 Y38.207 E.05136
G1 X209.325 Y37.406 E.03372
G1 X208.428 Y36.093 E.05135
G1 X207.925 Y35.177 E.03375
G1 X207.299 Y33.715 E.05136
G1 X206.983 Y32.72 E.03372
G1 X206.65 Y31.165 E.05136
G1 X206.532 Y30.127 E.03374
G1 X206.506 Y28.537 E.05136
G1 X206.586 Y27.556 E.03179
M204 S1000
G1 X206.586 Y27.556 F10800
G1 X206.961 Y27.586
M204 S800
G1 F1200
G1 X206.964 Y27.551 E.00113
G1 X207.241 Y26.01 E.05056
G1 X207.512 Y25.051 E.03218
G1 X208.082 Y23.593 E.05056
G1 X208.532 Y22.705 E.03215
G1 X209.373 Y21.384 E.05057
G1 X209.987 Y20.6 E.03216
G1 X211.067 Y19.466 E.05057
G1 X211.82 Y18.815 E.03215
G1 X213.099 Y17.911 E.05058
G1 X213.964 Y17.418 E.03215
G1 X215.393 Y16.778 E.05057
G1 X216.337 Y16.461 E.03216
G1 X217.863 Y16.109 E.05058
G1 X219.461 Y15.941 E.05189
G1 X220.557 Y15.935 E.0354
G1 X222.115 Y16.086 E.05055
G1 X223.092 Y16.279 E.03216
G1 X224.592 Y16.729 E.05058
G1 X226.064 Y17.374 E.0519
G1 X227.019 Y17.911 E.03538
G1 X228.297 Y18.815 E.05055
G1 X229.051 Y19.466 E.03217
G1 X230.131 Y20.6 E.05057
G1 X230.744 Y21.384 E.03214
G1 X231.585 Y22.705 E.05057
G1 X232.035 Y23.593 E.03215
G1 X232.605 Y25.051 E.05056
G1 X232.876 Y26.01 E.03218
G1 X233.153 Y27.551 E.05056
G1 X233.234 Y28.543 E.03214
G1 X233.209 Y30.109 E.05058
G1 X233.096 Y31.098 E.03215
G1 X232.769 Y32.629 E.05056
G1 X232.467 Y33.578 E.03216
G1 X231.85 Y35.017 E.05056
G1 X231.371 Y35.89 E.03216
G1 X230.488 Y37.183 E.05057
G1 X229.85 Y37.947 E.03215
G1 X228.734 Y39.045 E.05056
G1 X227.959 Y39.672 E.03219
G1 X226.652 Y40.534 E.05056
G1 X225.772 Y40.999 E.03214
G1 X224.323 Y41.592 E.05056
G1 X223.369 Y41.878 E.03216
G1 X221.833 Y42.18 E.05055
G1 X220.842 Y42.277 E.03216
G1 X219.276 Y42.277 E.05057
G1 X218.285 Y42.18 E.03216
G1 X216.748 Y41.878 E.05059
G1 X215.795 Y41.592 E.03213
G1 X214.346 Y40.999 E.05056
G1 X213.465 Y40.534 E.03217
G1 X212.158 Y39.672 E.05056
G1 X211.384 Y39.045 E.03217
G1 X210.268 Y37.947 E.05056
G1 X209.629 Y37.183 E.03217
G1 X208.746 Y35.89 E.05057
G1 X208.267 Y35.017 E.03216
G1 X207.65 Y33.578 E.05056
G1 X207.349 Y32.629 E.03215
G1 X207.021 Y31.098 E.05057
G1 X206.909 Y30.109 E.03214
G1 X206.883 Y28.543 E.05058
G1 X206.956 Y27.646 E.02906
M204 S1000
;WIPE_START
G1 F8640
G1 X206.961 Y27.586 E-.0139
G1 X206.964 Y27.551 E-.00811
G1 X207.241 Y26.01 E-.36152
G1 X207.512 Y25.051 E-.23011
G1 X207.806 Y24.299 E-.18636
;WIPE_END
G1 Z.6 F720
; printing object Rubbermaid Mixer Feet id:0 copy 0
G1 X216.716 Y37.129 F10800
G1 Z.2 F720
G1 E.8 F2100
M204 S800
;TYPE:Perimeter
;WIDTH:0.419999
G1 F1200
G1 X216.24 Y36.911 E.01691
G1 X215.756 Y36.651 E.01774
G1 X215.299 Y36.374 E.01726
G1 X214.827 Y36.041 E.01865
G1 X214.395 Y35.696 E.01785
G1 X213.996 Y35.334 E.0174
G1 X213.571 Y34.881 E.02006
G1 X213.212 Y34.453 E.01804
G1 X212.887 Y34.005 E.01787
G1 X212.589 Y33.532 E.01805
G1 X212.322 Y33.053 E.01771
G1 X212.101 Y32.596 E.01639
G1 X211.872 Y32.018 E.02008
G1 X211.696 Y31.455 E.01905
G1 X211.564 Y30.915 E.01795
G1 X211.47 Y30.368 E.01792
G1 X211.406 Y29.822 E.01775
G1 X211.377 Y29.286 E.01734
G1 X211.384 Y28.708 E.01867
G1 X211.423 Y28.173 E.01732
G1 X211.512 Y27.572 E.01962
G1 X211.634 Y27.009 E.0186
G1 X211.787 Y26.483 E.01769
G1 X211.97 Y25.958 E.01796
G1 X212.188 Y25.447 E.01794
G1 X212.409 Y24.996 E.01622
G1 X212.723 Y24.46 E.02006
G1 X213.061 Y23.969 E.01925
G1 X213.405 Y23.535 E.01788
G1 X213.775 Y23.122 E.01791
G1 X214.174 Y22.733 E.018
M73 Q2 S14
G1 X214.586 Y22.371 E.01771
G1 X214.982 Y22.064 E.01618
G1 X215.527 Y21.702 E.02113
G1 X216.02 Y21.424 E.01828
G1 X216.503 Y21.194 E.01728
G1 X217.032 Y20.977 E.01847
G1 X217.558 Y20.798 E.01794
G1 X218.096 Y20.655 E.01798
G1 X218.638 Y20.545 E.01786
G1 X219.198 Y20.469 E.01825
G1 X219.798 Y20.432 E.01941
G1 X220.352 Y20.435 E.01789
G1 X220.899 Y20.474 E.01771
M73 P2 R14
G1 X221.452 Y20.543 E.018
G1 X221.996 Y20.649 E.0179
G1 X222.511 Y20.779 E.01715
G1 X223.098 Y20.975 E.01999
G1 X223.624 Y21.194 E.0184
G1 X224.12 Y21.439 E.01787
G1 X224.602 Y21.715 E.01794
G1 X225.066 Y22.023 E.01799
G1 X225.506 Y22.35 E.0177
G1 X225.909 Y22.691 E.01705
G1 X226.364 Y23.139 E.02062
G1 X226.73 Y23.555 E.01789
G1 X227.072 Y23.994 E.01797
G1 X227.384 Y24.455 E.01798
G1 X227.666 Y24.931 E.01787
G1 X227.916 Y25.42 E.01774
G1 X228.141 Y25.931 E.01803
G1 X228.339 Y26.487 E.01906
G1 X228.492 Y27.042 E.01859
G1 X228.605 Y27.584 E.01788
G1 X228.682 Y28.126 E.01768
G1 X228.73 Y28.683 E.01805
G1 X228.742 Y29.237 E.0179
G1 X228.722 Y29.758 E.01684
G1 X228.649 Y30.398 E.0208
G1 X228.547 Y30.942 E.01787
G1 X228.412 Y31.479 E.01788
G1 X228.243 Y32.008 E.01793
G1 X228.039 Y32.525 E.01795
G1 X227.812 Y33.025 E.01773
G1 X227.548 Y33.513 E.01792
G1 X227.219 Y34.028 E.01974
G1 X226.888 Y34.476 E.01799
G1 X226.529 Y34.901 E.01797
G1 X226.146 Y35.301 E.01788
G1 X225.742 Y35.674 E.01776
G1 X225.347 Y36.003 E.0166
G1 X224.893 Y36.33 E.01807
G1 X224.34 Y36.671 E.02098
G1 X223.848 Y36.926 E.0179
G1 X223.342 Y37.15 E.01787
G1 X222.823 Y37.342 E.01787
G1 X222.293 Y37.503 E.01789
G1 X221.749 Y37.627 E.01802
G1 X221.222 Y37.721 E.01729
G1 X220.599 Y37.781 E.02021
G1 X220.046 Y37.795 E.01786
G1 X219.491 Y37.776 E.01793
G1 X218.938 Y37.719 E.01795
G1 X218.395 Y37.634 E.01775
G1 X217.895 Y37.525 E.01653
G1 X217.358 Y37.369 E.01806
G1 X216.771 Y37.152 E.02021
M204 S1000
G1 X216.771 Y37.152 F10800
G1 X216.863 Y36.783
M204 S800
;TYPE:External perimeter
G1 F1200
G1 X216.398 Y36.569 E.01653
G1 X215.942 Y36.322 E.01675
G1 X215.508 Y36.06 E.01637
G1 X215.058 Y35.743 E.01778
G1 X214.649 Y35.417 E.01689
G1 X214.25 Y35.055 E.0174
G1 X213.846 Y34.624 E.01908
G1 X213.505 Y34.215 E.0172
G1 X213.197 Y33.79 E.01695
G1 X212.913 Y33.339 E.01721
G1 X212.661 Y32.888 E.01668
G1 X212.435 Y32.414 E.01696
G1 X212.223 Y31.881 E.01852
G1 X212.056 Y31.343 E.01819
G1 X211.932 Y30.83 E.01704
G1 X211.843 Y30.31 E.01704
G1 X211.783 Y29.795 E.01674
G1 X211.754 Y29.286 E.01646
G1 X211.761 Y28.735 E.0178
G1 X211.799 Y28.203 E.01722
G1 X211.885 Y27.627 E.01881
G1 X212.002 Y27.093 E.01765
G1 X212.147 Y26.597 E.01669
G1 X212.321 Y26.097 E.0171
G1 X212.527 Y25.612 E.01702
G1 X212.761 Y25.142 E.01696
G1 X213.048 Y24.652 E.01834
G1 X213.371 Y24.184 E.01836
G1 X213.697 Y23.773 E.01694
G1 X214.049 Y23.381 E.01701
G1 X214.429 Y23.011 E.01713
G1 X214.818 Y22.669 E.01673
G1 X215.219 Y22.358 E.01639
G1 X215.736 Y22.016 E.02002
G1 X216.205 Y21.752 E.01738
G1 X216.663 Y21.536 E.01635
G1 X217.163 Y21.33 E.01746
G1 X217.664 Y21.16 E.01709
G1 X218.175 Y21.024 E.01708
G1 X218.689 Y20.919 E.01694
G1 X219.246 Y20.843 E.01815
G1 X219.82 Y20.808 E.01857
G1 X220.345 Y20.812 E.01696
G1 X220.861 Y20.85 E.01671
G1 X221.388 Y20.915 E.01715
G1 X221.905 Y21.014 E.017
G1 X222.392 Y21.137 E.01622
G1 X222.98 Y21.333 E.02002
G1 X223.478 Y21.542 E.01744
G1 X223.948 Y21.775 E.01694
G1 X224.405 Y22.036 E.017
G1 X224.846 Y22.33 E.01712
G1 X225.263 Y22.638 E.01674
G1 X225.662 Y22.977 E.01691
G1 X226.099 Y23.407 E.0198
G1 X226.445 Y23.802 E.01696
G1 X226.77 Y24.22 E.0171
G1 X227.067 Y24.659 E.01712
G1 X227.334 Y25.11 E.01693
G1 X227.571 Y25.572 E.01677
G1 X227.794 Y26.079 E.01789
G1 X227.984 Y26.613 E.0183
G1 X228.128 Y27.141 E.01767
G1 X228.235 Y27.655 E.01696
G1 X228.307 Y28.167 E.0167
G1 X228.353 Y28.697 E.01718
G1 X228.365 Y29.222 E.01696
G1 X228.345 Y29.74 E.01674
G1 X228.275 Y30.355 E.01999
G1 X228.177 Y30.871 E.01696
G1 X228.048 Y31.38 E.01696
G1 X227.888 Y31.882 E.01702
G1 X227.694 Y32.373 E.01705
G1 X227.48 Y32.846 E.01677
G1 X227.218 Y33.332 E.01783
G1 X226.901 Y33.824 E.0189
G1 X226.587 Y34.25 E.01709
G1 X226.244 Y34.654 E.01712
G1 X225.881 Y35.033 E.01695
G1 X225.5 Y35.385 E.01675
G1 X225.092 Y35.722 E.01709
G1 X224.675 Y36.022 E.01659
G1 X224.143 Y36.35 E.02018
G1 X223.676 Y36.59 E.01696
G1 X223.196 Y36.802 E.01695
G1 X222.704 Y36.984 E.01694
G1 X222.201 Y37.137 E.01698
G1 X221.682 Y37.256 E.0172
G1 X221.153 Y37.35 E.01735
G1 X220.564 Y37.406 E.01911
G1 X220.039 Y37.418 E.01696
G1 X219.512 Y37.4 E.01703
G1 X218.987 Y37.345 E.01705
G1 X218.474 Y37.266 E.01676
G1 X217.957 Y37.151 E.0171
G1 X217.467 Y37.008 E.01648
G1 X216.919 Y36.805 E.01887
M204 S1000
;WIPE_START
G1 F8640
G1 X216.863 Y36.783 E-.01389
G1 X216.398 Y36.569 E-.11819
G1 X215.942 Y36.322 E-.11975
G1 X215.508 Y36.06 E-.11706
G1 X215.058 Y35.743 E-.1271
G1 X214.649 Y35.417 E-.12077
G1 X214.25 Y35.055 E-.1244
G1 X214.076 Y34.869 E-.05884
;WIPE_END
G1 Z.6 F720
G1 X211.838 Y23.067 F10800
G1 Z.2 F720
G1 E.8 F2100
M204 S800
;TYPE:Perimeter
G1 F1200
G1 X211.918 Y22.953 E.0045
G1 X212.24 Y22.544 E.01681
G1 X212.682 Y22.052 E.02136
G1 X213.154 Y21.589 E.02135
G1 X213.656 Y21.158 E.02137
G1 X214.169 Y20.771 E.02075
G1 X214.812 Y20.354 E.02475
G1 X215.427 Y20.015 E.02268
G1 X215.888 Y19.792 E.01654
G1 X216.522 Y19.533 E.02212
G1 X217.148 Y19.325 E.0213
G1 X217.787 Y19.157 E.02134
G1 X218.437 Y19.031 E.02138
G1 X219.143 Y18.944 E.02297
G1 X219.911 Y18.906 E.02483
G1 X220.414 Y18.907 E.01624
G1 X221.074 Y18.952 E.02136
G1 X221.73 Y19.039 E.02137
G1 X222.378 Y19.168 E.02134
G1 X223.017 Y19.339 E.02136
G1 X223.721 Y19.583 E.02406
G1 X224.337 Y19.843 E.02159
G1 X224.849 Y20.094 E.01842
G1 X225.422 Y20.423 E.02134
G1 X225.974 Y20.789 E.02139
G1 X226.5 Y21.189 E.02134
G1 X227.008 Y21.63 E.02173
G1 X227.549 Y22.176 E.02482
G1 X227.986 Y22.681 E.02157
G1 X228.315 Y23.104 E.01731
G1 X228.687 Y23.651 E.02136
G1 X229.022 Y24.221 E.02135
G1 X229.32 Y24.811 E.02135
G1 X229.59 Y25.454 E.02252
G1 X229.82 Y26.119 E.02272
G1 X230.01 Y26.837 E.02399
G1 X230.113 Y27.328 E.0162
G1 X230.208 Y27.982 E.02134
G1 X230.26 Y28.642 E.02138
G1 X230.269 Y29.303 E.02135
G1 X230.234 Y29.968 E.02151
G1 X230.139 Y30.731 E.02483
G1 X230.011 Y31.387 E.02158
G1 X229.879 Y31.912 E.01748
G1 X229.677 Y32.542 E.02137
G1 X229.435 Y33.158 E.02137
G1 X229.154 Y33.756 E.02134
G1 X228.813 Y34.369 E.02265
G1 X228.394 Y35.007 E.02465
G1 X227.987 Y35.544 E.02176
G1 X227.66 Y35.931 E.01636
G1 X227.203 Y36.409 E.02136
G1 X226.716 Y36.856 E.02135
G1 X226.201 Y37.271 E.02136
G1 X225.66 Y37.651 E.02135
G1 X225 Y38.046 E.02484
G1 X224.406 Y38.35 E.02155
G1 X223.905 Y38.572 E.0177
G1 X223.285 Y38.801 E.02134
G1 X222.651 Y38.99 E.02137
G1 X222.006 Y39.137 E.02136
G1 X221.32 Y39.245 E.02243
G1 X220.554 Y39.309 E.02482
G1 X219.886 Y39.32 E.02158
G1 X219.373 Y39.301 E.01658
G1 X218.715 Y39.236 E.02135
G1 X218.062 Y39.127 E.02138
G1 X217.418 Y38.977 E.02135
G1 X216.785 Y38.786 E.02135
G1 X216.074 Y38.512 E.02461
G1 X215.468 Y38.231 E.02157
G1 X214.979 Y37.971 E.01789
G1 X214.435 Y37.636 E.02063
G1 X213.876 Y37.24 E.02212
G1 X213.364 Y36.824 E.0213
G1 X212.853 Y36.348 E.02255
G1 X212.296 Y35.741 E.02661
G1 X211.917 Y35.271 E.0195
G1 X211.612 Y34.851 E.01676
G1 X211.258 Y34.292 E.02137
G1 X210.941 Y33.712 E.02135
G1 X210.663 Y33.112 E.02136
G1 X210.405 Y32.436 E.02337
G1 X210.185 Y31.703 E.02472
G1 X210.048 Y31.115 E.0195
G1 X209.952 Y30.571 E.01784
G1 X209.878 Y29.914 E.02135
G1 X209.849 Y29.276 E.02063
G1 X209.86 Y28.591 E.02212
G1 X209.918 Y27.912 E.02201
G1 X210.041 Y27.154 E.0248
G1 X210.19 Y26.501 E.02163
G1 X210.334 Y25.996 E.01696
G1 X210.556 Y25.374 E.02133
G1 X210.818 Y24.766 E.02138
G1 X211.119 Y24.177 E.02136
G1 X211.489 Y23.562 E.02318
G1 X211.803 Y23.116 E.01762
M204 S1000
G1 X211.803 Y23.116 F10800
G1 X211.527 Y22.855
M204 S800
;TYPE:External perimeter
G1 F1200
G1 X211.635 Y22.702 E.00605
G1 X212.072 Y22.166 E.02233
G1 X212.417 Y21.783 E.01665
G1 X212.908 Y21.303 E.02218
G1 X213.428 Y20.857 E.02212
G1 X213.961 Y20.457 E.02152
G1 X214.626 Y20.027 E.02557
G1 X215.262 Y19.676 E.02346
G1 X215.744 Y19.444 E.01728
G1 X216.402 Y19.176 E.02295
G1 X217.051 Y18.96 E.02209
G1 X217.715 Y18.787 E.02216
G1 X218.388 Y18.657 E.02214
G1 X219.118 Y18.567 E.02375
G1 X219.911 Y18.528 E.02564
M73 Q3 S14
G1 X220.603 Y18.542 E.02235
G1 X221.123 Y18.578 E.01683
G1 X221.802 Y18.669 E.02212
G1 X222.475 Y18.803 E.02216
G1 X223.137 Y18.981 E.02214
G1 X223.864 Y19.234 E.02486
G1 X224.568 Y19.536 E.02474
G1 X225.035 Y19.767 E.01683
G1 X225.63 Y20.108 E.02215
G1 X226.201 Y20.488 E.02215
M73 P3 R14
G1 X226.747 Y20.903 E.02215
G1 X227.272 Y21.362 E.02252
G1 X227.83 Y21.925 E.0256
G1 X228.342 Y22.524 E.02545
G1 X228.719 Y23.026 E.02027
G1 X229.011 Y23.459 E.01687
G1 X229.359 Y24.05 E.02215
G1 X229.667 Y24.663 E.02216
G1 X229.945 Y25.328 E.02328
G1 X230.183 Y26.017 E.02354
G1 X230.379 Y26.758 E.02475
G1 X230.486 Y27.273 E.01699
G1 X230.583 Y27.952 E.02215
G1 X230.637 Y28.635 E.02213
G1 X230.645 Y29.321 E.02216
G1 X230.609 Y30.011 E.02231
G1 X230.51 Y30.798 E.02562
G1 X230.377 Y31.478 E.02238
G1 X230.238 Y32.027 E.01829
G1 X230.029 Y32.679 E.02211
G1 X229.777 Y33.317 E.02215
G1 X229.484 Y33.937 E.02215
G1 X229.131 Y34.571 E.02343
G1 X228.698 Y35.229 E.02544
G1 X228.26 Y35.805 E.02337
G1 X227.933 Y36.191 E.01634
G1 X227.459 Y36.686 E.02213
G1 X226.953 Y37.149 E.02215
