; generated by PrusaSlicer 2.9.2 on 2025-04-18 at 13:12:37 UTC


;
;
; 

; external perimeters extrusion width = 0.60mm
; perimeters extrusion width = 0.50mm
; infill extrusion width = 0.50mm
; solid infill extrusion width = 0.50mm
; top infill extrusion width = 0.45mm
; first layer extrusion width = 0.42mm

M73 P0 R28
M73 Q0 S28
M201 X1000 Y1000 Z200 E5000 ; sets maximum accelerations, mm/sec^2
M203 X200 Y200 Z12 E120 ; sets maximum feedrates, mm / sec
M204 S1250 T1250 ; sets acceleration (S) and retract acceleration (R), mm/sec^2
M205 X8.00 Y8.00 Z0.40 E4.50 ; sets the jerk limits, mm/sec
M205 S0 T0 ; sets the minimum extruding and travel feed rate, mm/sec

; printing object cutter id:0 copy 0
; stop printing object cutter id:0 copy 0

;TYPE:Custom
M862.3 P "MK3S" ; printer model check
M862.1 P0.4 ; nozzle diameter check
M115 U3.14.1 ; tell printer latest fw version
G90 ; use absolute coordinates
M83 ; extruder relative mode
M104 S200 ; set extruder temp
M140 S60 ; set bed temp
M190 S60 ; wait for bed temp
M109 S200 ; wait for extruder temp
G28 W ; home all without mesh bed level
G80 X71.3876 Y61.5342 W107.225 H86.9327 ; mesh bed levelling

G1 Z0.2 F720
G1 Y-3 F1000 ; go outside print area
G92 E0
G1 X60 E9 F1000 ; intro line
G1 X100 E12.5 F1000 ; intro line

G92 E0
M221 S95

; Don't change E values below. Excessive value can damage the printer.

M907 E538 ; set extruder motor current
G21 ; set units to millimeters
G90 ; use absolute coordinates
M83 ; use relative distances for extrusion

M900 K0.05 ; Filament gcode LA 1.5
M900 K30 ; Filament gcode LA 1.0




M107
;LAYER_CHANGE
;Z:0.2
;HEIGHT:0.2
G1 E-1.2 F2100
G1 Z.6 F720
G1 X85.409 Y73.242 F10800
G1 Z.2 F720
G1 E1.2 F2100
M204 S800
;TYPE:Skirt/Brim
;WIDTH:0.42
G1 F1200
G1 X86.575 Y71.965 E.05422
G1 X87.693 Y71.042 E.04546
G1 X88.471 Y70.513 E.0295
G1 X90.267 Y69.539 E.06406
G1 X92.661 Y68.644 E.08014
G1 X114.436 Y63.03 E.70507
G1 X117.118 Y62.446 E.08606
G1 X119.751 Y62.042 E.08352
G1 X122.404 Y61.801 E.08353
G1 X125.152 Y61.725 E.08619
G1 X127.73 Y61.809 E.08087
G1 X130.249 Y62.042 E.07932
G1 X133.015 Y62.471 E.08776
G1 X135.564 Y63.03 E.08182
G1 X157.339 Y68.644 E.70507
G1 X158.729 Y69.115 E.04602
G1 X160.923 Y70.149 E.07605
G1 X162.831 Y71.447 E.07235
G1 X163.978 Y72.52 E.04925
G1 X164.979 Y73.777 E.05038
G1 X175.252 Y88.61 E.56573
G1 X175.928 Y89.788 E.04258
G1 X176.896 Y91.779 E.06941
G1 X177.74 Y94.087 E.07705
G1 X178.262 Y96.389 E.07401
G1 X178.393 Y97.568 E.03719
G1 X178.418 Y98.797 E.03854
G1 X176.709 Y114.362 E.49096
G1 X176.39 Y116 E.05232
G1 X175.946 Y117.467 E.04806
G1 X175.365 Y118.833 E.04654
G1 X169.541 Y129.041 E.36849
G1 X168.251 Y130.672 E.0652
G1 X161.03 Y138.769 E.34017
G1 X160.072 Y139.732 E.04259
G1 X159.086 Y140.492 E.03903
G1 X148.846 Y146.552 E.37308
G1 X147.129 Y147.143 E.05694
G1 X145.825 Y147.32 E.04126
G1 X126.293 Y148.278 E.61315
G1 X123.6 Y148.276 E.08444
G1 X104.175 Y147.32 E.60979
G1 X102.871 Y147.143 E.04126
M73 P1 R28
M73 Q1 S28
G1 X101.848 Y146.843 E.03343
G1 X100.24 Y146.066 E.056
G1 X91.347 Y140.76 E.32469
G1 X89.928 Y139.732 E.05494
G1 X88.97 Y138.769 E.04259
G1 X81.178 Y130.016 E.36743
G1 X79.951 Y128.227 E.06802
G1 X74.635 Y118.833 E.33843
G1 X73.974 Y117.241 E.05405
G1 X73.56 Y115.796 E.04713
G1 X73.291 Y114.362 E.04575
G1 X71.582 Y98.797 E.49096
G1 X71.621 Y97.382 E.04438
G1 X71.993 Y95.081 E.07308
G1 X72.63 Y92.971 E.06911
G1 X73.104 Y91.779 E.04022
G1 X74.12 Y89.699 E.07258
G1 X75.412 Y87.575 E.07795
G1 X85.375 Y73.291 E.54605
M204 S1000
;WIPE_START
G1 F8640
G1 X85.409 Y73.242 E-.01377
G1 X86.575 Y71.965 E-.39929
G1 X87.693 Y71.042 E-.33476
G1 X88.471 Y70.513 E-.21724
G1 X89.365 Y70.028 E-.23494
;WIPE_END
G1 Z.6 F720
; printing object cutter id:0 copy 0
G1 X142.494 Y139.718 F10800
G1 Z.2 F720
G1 E1.2 F2100
M204 S800
;TYPE:Perimeter
;WIDTH:0.419999
G1 F1200
G1 X141.147 Y140.386 E.04714
G1 X138.786 Y141.371 E.08021
G1 X136.365 Y142.199 E.08023
G1 X133.895 Y142.866 E.08022
G1 X131.382 Y143.37 E.08036
G1 X128.847 Y143.706 E.08018
G1 X126.296 Y143.876 E.08016
G1 X123.739 Y143.877 E.08017
G1 X121.186 Y143.71 E.08022
G1 X118.613 Y143.369 E.08138
G1 X116.105 Y142.866 E.0802
G1 X113.67 Y142.21 E.07907
G1 X111.214 Y141.371 E.08138
G1 X108.887 Y140.402 E.07903
G1 X107.506 Y139.718 E.04832
G1 X107.187 Y140.725 E.03312
G1 X106.919 Y141.305 E.02003
G1 X106.614 Y141.789 E.01794
G1 X106.256 Y142.202 E.01714
G1 X105.837 Y142.536 E.0168
G1 X105.359 Y142.774 E.01674
G1 X104.84 Y142.902 E.01676
G1 X104.304 Y142.918 E.01681
G1 X103.77 Y142.832 E.01696
G1 X103.246 Y142.662 E.01727
G1 X102.733 Y142.421 E.01777
G1 X102.229 Y142.118 E.01844
G1 X101.751 Y141.775 E.01845
G1 X101.242 Y141.356 E.02067
G1 X100.312 Y140.447 E.04077
G1 X99.425 Y139.4 E.04302
G1 X98.677 Y138.347 E.0405
G1 X98.057 Y137.297 E.03823
G1 X97.791 Y136.646 E.02205
G1 X97.639 Y136.183 E.01528
G1 X97.365 Y136.531 E.01389
G1 X96.953 Y136.875 E.01683
G1 X96.488 Y137.134 E.01669
G1 X95.998 Y137.312 E.01635
G1 X95.468 Y137.408 E.01689
G1 X94.95 Y137.407 E.01624
G1 X94.366 Y137.3 E.01862
G1 X93.855 Y137.104 E.01716
G1 X93.279 Y136.774 E.02081
G1 X92.747 Y136.347 E.02139
G1 X92.266 Y135.849 E.02171
G1 X91.833 Y135.295 E.02205
G1 X91.439 Y134.69 E.02264
G1 X91.083 Y134.044 E.02313
G1 X90.508 Y132.722 E.0452
G1 X90.341 Y132.237 E.01608
G1 X90.085 Y131.378 E.0281
G1 X89.943 Y130.753 E.0201
G1 X89.861 Y130.147 E.01917
G1 X89.862 Y129.568 E.01815
G1 X89.888 Y129.372 E.0062
G1 X89.582 Y129.52 E.01066
G1 X89.059 Y129.62 E.0167
G1 X88.548 Y129.612 E.01602
G1 X88.051 Y129.53 E.01579
G1 X87.487 Y129.368 E.0184
G1 X86.918 Y129.132 E.01931
G1 X86.352 Y128.82 E.02026
G1 X85.799 Y128.433 E.02116
G1 X85.342 Y128.039 E.01892
G1 X84.772 Y127.455 E.02559
G1 X84.563 Y127.194 E.01048
G1 X84.151 Y126.639 E.02167
G1 X83.873 Y126.219 E.01579
G1 X83.525 Y125.598 E.02232
G1 X83.203 Y124.917 E.02362
G1 X82.931 Y124.224 E.02334
G1 X82.71 Y123.531 E.02281
G1 X82.537 Y122.85 E.02203
G1 X82.413 Y122.193 E.02096
G1 X82.334 Y121.57 E.01969
G1 X82.299 Y120.987 E.01831
G1 X82.322 Y120.438 E.01723
G1 X82.434 Y119.914 E.0168
G1 X82.499 Y119.748 E.00559
G1 X82.022 Y119.781 E.01499
G1 X81.408 Y119.641 E.01975
G1 X80.899 Y119.406 E.01758
G1 X80.308 Y119.019 E.02215
G1 X79.742 Y118.521 E.02364
G1 X79.214 Y117.911 E.0253
G1 X78.763 Y117.224 E.02577
G1 X78.344 Y116.377 E.02963
G1 X78.008 Y115.43 E.03151
G1 X77.784 Y114.525 E.02923
G1 X77.659 Y113.773 E.0239
G1 X77.551 Y112.794 E.03088
G1 X77.502 Y111.799 E.03124
G1 X77.509 Y110.807 E.0311
G1 X77.567 Y109.83 E.03069
G1 X77.673 Y108.878 E.03003
G1 X77.823 Y107.96 E.02916
G1 X78.012 Y107.089 E.02795
G1 X78.234 Y106.282 E.02624
G1 X78.625 Y105.157 E.03734
G1 X78.919 Y104.505 E.02243
G1 X79.327 Y103.863 E.02385
G1 X79.528 Y103.587 E.01071
G1 X79.637 Y103.487 E.00464
G1 X79.121 Y103.426 E.01629
G1 X78.608 Y103.22 E.01733
G1 X78.143 Y102.971 E.01654
G1 X77.613 Y102.575 E.02074
G1 X77.239 Y102.204 E.01652
G1 X76.65 Y101.361 E.03224
G1 X76.28 Y100.504 E.02927
G1 X76.124 Y99.936 E.01847
G1 X76.027 Y99.361 E.01828
G1 X75.98 Y98.754 E.01909
G1 X75.984 Y98.119 E.01991
G1 X76.036 Y97.461 E.0207
G1 X76.137 Y96.782 E.02152
G1 X76.273 Y96.137 E.02067
G1 X76.697 Y94.686 E.0474
G1 X77.148 Y93.55 E.03832
G1 X77.535 Y92.708 E.02906
G1 X77.955 Y91.859 E.0297
G1 X78.749 Y90.51 E.04908
G1 X79.623 Y89.237 E.04842
G1 X80.267 Y88.423 E.03254
G1 X80.895 Y87.686 E.03036
G1 X81.519 Y87.001 E.02905
G1 X82.214 Y86.336 E.03016
G1 X82.849 Y85.773 E.02661
G1 X83.465 Y85.265 E.02503
G1 X84.408 Y84.602 E.03614
G1 X85.307 Y84.075 E.03267
G1 X86.149 Y83.682 E.02913
G1 X86.925 Y83.416 E.02572
G1 X87.666 Y83.303 E.0235
G1 X88.186 Y83.35 E.01637
G1 X88.258 Y83.373 E.00237
G1 X88.079 Y82.973 E.01374
G1 X87.886 Y82.175 E.02574
G1 X87.732 Y80.798 E.04344
G1 X87.706 Y80.229 E.01786
G1 X87.705 Y79.446 E.02455
G1 X87.75 Y78.82 E.01968
G1 X87.839 Y78.229 E.01874
G1 X87.98 Y77.669 E.01811
G1 X88.153 Y77.195 E.01582
G1 X88.43 Y76.625 E.01987
G1 X88.743 Y76.136 E.0182
G1 X89.118 Y75.667 E.01883
G1 X89.554 Y75.215 E.01969
G1 X89.936 Y74.883 E.01587
G1 X90.338 Y74.573 E.01592
G1 X90.781 Y74.265 E.01692
G1 X91.271 Y73.964 E.01803
G1 X91.992 Y73.589 E.02548
G1 X92.794 Y73.243 E.02739
G1 X93.682 Y72.93 E.02952
G1 X94.658 Y72.657 E.03178
G1 X95.725 Y72.431 E.0342
G1 X96.887 Y72.258 E.03684
G1 X98.146 Y72.144 E.03964
G1 X99.504 Y72.095 E.04261
G1 X100.962 Y72.114 E.04572
G1 X102.522 Y72.205 E.049
G1 X103.918 Y72.343 E.04398
G1 X105.795 Y71.196 E.06897
G1 X108.015 Y70.029 E.07864
G1 X110.305 Y69.007 E.07863
G1 X112.657 Y68.134 E.07866
G1 X115.059 Y67.415 E.07861
G1 X117.509 Y66.851 E.07883
G1 X119.983 Y66.448 E.07859
G1 X122.478 Y66.205 E.0786
G1 X124.965 Y66.124 E.07802
G1 X127.488 Y66.203 E.07915
G1 X129.985 Y66.444 E.07866
G1 X132.461 Y66.846 E.07865
G1 X134.941 Y67.415 E.07978
G1 X137.343 Y68.134 E.07861
G1 X139.695 Y69.007 E.07866
G1 X141.985 Y70.029 E.07863
G1 X144.173 Y71.178 E.07749
G1 X146.082 Y72.343 E.07012
G1 X147.455 Y72.206 E.04326
G1 X149.012 Y72.114 E.0489
G1 X150.468 Y72.094 E.04566
G1 X151.844 Y72.144 E.04317
G1 X152.699 Y72.22 E.02691
G1 X153.955 Y72.383 E.03971
G1 X155.107 Y72.607 E.0368
G1 X156.158 Y72.884 E.03408
G1 X157.11 Y73.208 E.03153
G1 X157.966 Y73.57 E.02914
G1 X158.693 Y73.944 E.02563
G1 X159.219 Y74.265 E.01932
G1 X159.662 Y74.573 E.01692
G1 X160.064 Y74.883 E.01592
G1 X160.444 Y75.213 E.01578
G1 X160.847 Y75.627 E.01812
G1 X161.223 Y76.09 E.0187
G1 X161.54 Y76.572 E.01809
G1 X161.799 Y77.078 E.01782
G1 X162.002 Y77.611 E.01788
G1 X162.15 Y78.175 E.01828
G1 X162.245 Y78.775 E.01905
G1 X162.293 Y79.41 E.01997
G1 X162.3 Y80.075 E.02085
M73 Q2 S28
G1 X162.271 Y80.762 E.02156
G1 X162.126 Y82.103 E.04229
G1 X161.968 Y82.762 E.02125
G1 X161.763 Y83.368 E.02006
G1 X162.202 Y83.301 E.01392
G1 X162.845 Y83.374 E.02029
G1 X163.449 Y83.542 E.01966
M73 P2 R28
G1 X163.851 Y83.682 E.01335
G1 X164.646 Y84.051 E.02748
G1 X165.321 Y84.441 E.02444
G1 X166.217 Y85.04 E.03379
G1 X167.151 Y85.773 E.03723
G1 X167.786 Y86.336 E.02661
G1 X168.454 Y86.973 E.02894
G1 X169.446 Y88.062 E.04619
G1 X170.358 Y89.211 E.046
G1 X171.229 Y90.476 E.04816
G1 X172.025 Y91.823 E.04906
G1 X172.718 Y93.219 E.04887
G1 X173.212 Y94.452 E.04165
G1 X173.705 Y96.042 E.05219
G1 X173.857 Y96.749 E.02267
G1 X173.959 Y97.423 E.02137
G1 X174.015 Y98.077 E.02058
G1 X174.02 Y98.592 E.01615
G1 X173.979 Y99.311 E.02258
G1 X173.887 Y99.884 E.0182
G1 X173.619 Y100.753 E.02851
G1 X173.51 Y101.036 E.00951
G1 X173.088 Y101.784 E.02693
G1 X172.387 Y102.575 E.03314
G1 X171.784 Y103.025 E.02359
G1 X171.049 Y103.378 E.02557
G1 X170.508 Y103.491 E.01733
G1 X170.366 Y103.489 E.00445
G1 X170.702 Y103.866 E.01583
G1 X171.053 Y104.45 E.02136
G1 X171.36 Y105.122 E.02316
G1 X171.635 Y105.854 E.02452
G1 X171.881 Y106.657 E.02633
G1 X172.094 Y107.525 E.02802
G1 X172.269 Y108.449 E.02949
G1 X172.399 Y109.418 E.03065
G1 X172.48 Y110.42 E.03152
G1 X172.508 Y111.442 E.03206
G1 X172.478 Y112.47 E.03225
G1 X172.386 Y113.487 E.03202
G1 X172.226 Y114.48 E.03154
G1 X171.992 Y115.43 E.03068
G1 X171.68 Y116.32 E.02957
G1 X171.237 Y117.223 E.03154
G1 X170.831 Y117.851 E.02345
G1 X170.488 Y118.26 E.01674
G1 X169.978 Y118.771 E.02264
G1 X169.444 Y119.185 E.02119
G1 X169.101 Y119.405 E.01278
G1 X168.593 Y119.641 E.01756
G1 X168.062 Y119.769 E.01713
G1 X167.714 Y119.788 E.01093
G1 X167.539 Y119.776 E.0055
G1 X167.666 Y120.272 E.01605
G1 X167.704 Y120.942 E.02104
G1 X167.67 Y121.534 E.01859
G1 X167.604 Y122.065 E.01678
G1 X167.47 Y122.817 E.02395
G1 X167.306 Y123.475 E.02126
G1 X167.101 Y124.125 E.02137
G1 X166.853 Y124.777 E.02187
G1 X166.56 Y125.421 E.02218
G1 X166.225 Y126.045 E.02221
G1 X165.849 Y126.639 E.02204
G1 X165.437 Y127.194 E.02167
G1 X164.987 Y127.709 E.02144
G1 X164.253 Y128.391 E.03142
G1 X163.699 Y128.788 E.02137
G1 X163.138 Y129.105 E.0202
G1 X162.677 Y129.303 E.01573
G1 X162.016 Y129.514 E.02176
G1 X161.473 Y129.609 E.01728
G1 X160.964 Y129.62 E.01596
G1 X160.418 Y129.52 E.0174
G1 X160.112 Y129.372 E.01066
G1 X160.143 Y130.068 E.02184
G1 X160.066 Y130.701 E.01999
G1 X159.922 Y131.349 E.02081
G1 X159.737 Y132.004 E.02134
G1 X159.509 Y132.679 E.02234
G1 X158.94 Y133.997 E.04501
G1 X158.583 Y134.654 E.02344
G1 X158.195 Y135.256 E.02246
G1 X157.771 Y135.806 E.02177
G1 X157.312 Y136.293 E.02098
G1 X156.818 Y136.707 E.02021
G1 X156.29 Y137.037 E.01952
G1 X155.734 Y137.27 E.0189
G1 X155.172 Y137.393 E.01804
G1 X154.582 Y137.41 E.01851
G1 X154.027 Y137.318 E.01764
G1 X153.512 Y137.134 E.01715
G1 X153.072 Y136.889 E.01579
G1 X152.658 Y136.551 E.01676
G1 X152.357 Y136.21 E.01426
G1 X152.192 Y136.755 E.01785
G1 X151.971 Y137.243 E.0168
G1 X151.491 Y138.065 E.02985
G1 X150.851 Y139.012 E.03584
G1 X150.25 Y139.784 E.03068
G1 X149.723 Y140.408 E.02561
G1 X148.793 Y141.325 E.04095
G1 X148.298 Y141.739 E.02023
G1 X147.809 Y142.093 E.01893
G1 X147.316 Y142.394 E.01811
G1 X146.818 Y142.636 E.01736
G1 X146.313 Y142.811 E.01676
G1 X145.799 Y142.909 E.01641
G1 X145.278 Y142.915 E.01634
G1 X144.76 Y142.814 E.01655
G1 X144.267 Y142.599 E.01686
G1 X143.823 Y142.275 E.01723
G1 X143.44 Y141.86 E.01771
G1 X143.116 Y141.368 E.01847
G1 X142.845 Y140.807 E.01953
G1 X142.619 Y140.178 E.02096
G1 X142.516 Y139.761 E.01347
M204 S1000
G1 X142.757 Y139.166 F10800
M204 S800
;TYPE:External perimeter
G1 F1200
G1 X140.98 Y140.048 E.0622
G1 X138.638 Y141.024 E.07955
G1 X136.241 Y141.843 E.07942
G1 X133.795 Y142.502 E.07943
G1 X131.311 Y143 E.07943
G1 X128.8 Y143.332 E.07942
G1 X126.272 Y143.499 E.07944
G1 X123.739 Y143.5 E.07942
G1 X121.211 Y143.333 E.07944
G1 X118.687 Y142.999 E.07983
G1 X116.215 Y142.505 E.07904
G1 X113.768 Y141.846 E.07946
G1 X111.359 Y141.023 E.07982
G1 X109.032 Y140.053 E.07905
G1 X107.248 Y139.169 E.06243
G1 X107.031 Y140.038 E.02808
G1 X106.832 Y140.599 E.01866
G1 X106.578 Y141.144 E.01885
G1 X106.297 Y141.585 E.0164
G1 X105.962 Y141.964 E.01586
G1 X105.573 Y142.257 E.01527
G1 X105.059 Y142.468 E.01742
G1 X104.72 Y142.538 E.01085
G1 X104.267 Y142.538 E.0142
G1 X103.808 Y142.454 E.01463
G1 X103.124 Y142.19 E.02299
G1 X102.424 Y141.796 E.02519
G1 X101.972 Y141.47 E.01747
G1 X101.483 Y141.066 E.01989
G1 X100.577 Y140.178 E.03978
G1 X100.038 Y139.541 E.02616
G1 X99.457 Y138.793 E.0297
G1 X98.984 Y138.128 E.02559
G1 X98.382 Y137.106 E.03719
G1 X98.148 Y136.525 E.01964
G1 X97.987 Y135.964 E.0183
G1 X97.932 Y135.575 E.01232
G1 X97.816 Y135.16 E.01351
G1 X97.303 Y136.003 E.03094
G1 X97.118 Y136.246 E.00958
G1 X96.723 Y136.572 E.01606
G1 X96.144 Y136.86 E.02028
G1 X95.613 Y137.001 E.01723
G1 X94.953 Y137.03 E.02071
G1 X94.441 Y136.93 E.01636
G1 X93.934 Y136.729 E.0171
G1 X93.476 Y136.452 E.01678
G1 X92.987 Y136.056 E.01973
G1 X92.539 Y135.589 E.02029
G1 X92.131 Y135.064 E.02085
G1 X91.755 Y134.485 E.02165
G1 X91.414 Y133.863 E.02224
G1 X90.854 Y132.572 E.04412
G1 X90.629 Y131.91 E.02192
G1 X90.448 Y131.275 E.0207
G1 X90.311 Y130.67 E.01945
G1 X90.235 Y130.098 E.01809
G1 X90.239 Y129.572 E.01649
G1 X90.321 Y128.762 E.02553
G1 X89.858 Y128.952 E.01569
G1 X89.501 Y129.152 E.01283
G1 X89.039 Y129.243 E.01476
G1 X88.547 Y129.23 E.01543
G1 X87.784 Y129.063 E.02449
G1 X87.064 Y128.784 E.02421
G1 X86.536 Y128.491 E.01893
G1 X86.017 Y128.125 E.01991
G1 X85.59 Y127.755 E.01772
G1 X85.046 Y127.196 E.02446
G1 X84.858 Y126.96 E.00946
G1 X84.464 Y126.43 E.02071
G1 X84.104 Y125.86 E.02114
G1 X83.854 Y125.414 E.01603
G1 X83.545 Y124.757 E.02276
G1 X83.283 Y124.087 E.02256
G1 X83.069 Y123.417 E.02205
G1 X82.903 Y122.758 E.02131
G1 X82.783 Y122.123 E.02026
G1 X82.708 Y121.523 E.01896
G1 X82.676 Y120.965 E.01752
G1 X82.699 Y120.455 E.01601
G1 X82.815 Y119.96 E.01594
G1 X83.064 Y119.342 E.02089
G1 X82.048 Y119.402 E.03191
G1 X81.522 Y119.278 E.01694
G1 X81.057 Y119.063 E.01606
G1 X80.517 Y118.705 E.02031
G1 X79.992 Y118.24 E.02199
G1 X79.501 Y117.666 E.02368
G1 X79.08 Y117.019 E.0242
G1 X78.683 Y116.213 E.02817
G1 X78.379 Y115.357 E.02848
G1 X78.232 Y114.766 E.01909
G1 X78.032 Y113.712 E.03364
G1 X77.926 Y112.76 E.03003
G1 X77.879 Y111.788 E.03051
G1 X77.886 Y110.817 E.03045
G1 X77.943 Y109.86 E.03006
G1 X78.047 Y108.928 E.0294
G1 X78.194 Y108.03 E.02853
G1 X78.379 Y107.179 E.02731
