; generated by PrusaSlicer 2.9.2 on 2025-04-16 at 18:35:57 UTC


;
;
; 

; external perimeters extrusion width = 0.60mm
; perimeters extrusion width = 0.50mm
; infill extrusion width = 0.50mm
; solid infill extrusion width = 0.50mm
; top infill extrusion width = 0.45mm
; first layer extrusion width = 0.42mm

; external perimeters extrusion width = 0.60mm
; perimeters extrusion width = 0.50mm
; infill extrusion width = 0.50mm
; solid infill extrusion width = 0.50mm
; top infill extrusion width = 0.45mm
; first layer extrusion width = 0.42mm

; external perimeters extrusion width = 0.60mm
; perimeters extrusion width = 0.50mm
; infill extrusion width = 0.50mm
; solid infill extrusion width = 0.50mm
; top infill extrusion width = 0.45mm
; first layer extrusion width = 0.42mm

; external perimeters extrusion width = 0.60mm
; perimeters extrusion width = 0.50mm
; infill extrusion width = 0.50mm
; solid infill extrusion width = 0.50mm
; top infill extrusion width = 0.45mm
; first layer extrusion width = 0.42mm

; external perimeters extrusion width = 0.60mm
; perimeters extrusion width = 0.50mm
; infill extrusion width = 0.50mm
; solid infill extrusion width = 0.50mm
; top infill extrusion width = 0.45mm
; first layer extrusion width = 0.42mm

; external perimeters extrusion width = 0.60mm
; perimeters extrusion width = 0.50mm
; infill extrusion width = 0.50mm
; solid infill extrusion width = 0.50mm
; top infill extrusion width = 0.45mm
; first layer extrusion width = 0.42mm

; external perimeters extrusion width = 0.60mm
; perimeters extrusion width = 0.50mm
; infill extrusion width = 0.50mm
; solid infill extrusion width = 0.50mm
; top infill extrusion width = 0.45mm
; first layer extrusion width = 0.42mm

; external perimeters extrusion width = 0.60mm
; perimeters extrusion width = 0.50mm
; infill extrusion width = 0.50mm
; solid infill extrusion width = 0.50mm
; top infill extrusion width = 0.45mm
; first layer extrusion width = 0.42mm

; external perimeters extrusion width = 0.60mm
; perimeters extrusion width = 0.50mm
; infill extrusion width = 0.50mm
; solid infill extrusion width = 0.50mm
; top infill extrusion width = 0.45mm
; first layer extrusion width = 0.42mm

M73 P0 R126
M73 Q0 S129
M201 X1000 Y1000 Z200 E5000 ; sets maximum accelerations, mm/sec^2
M203 X200 Y200 Z12 E120 ; sets maximum feedrates, mm / sec
M204 S1250 T1250 ; sets acceleration (S) and retract acceleration (R), mm/sec^2
M205 X8.00 Y8.00 Z0.40 E4.50 ; sets the jerk limits, mm/sec
M205 S0 T0 ; sets the minimum extruding and travel feed rate, mm/sec

; printing object 20x20 Cube id:8 copy 0
; stop printing object 20x20 Cube id:8 copy 0
; printing object 20x20 Cube id:9 copy 0
; stop printing object 20x20 Cube id:9 copy 0
; printing object 20x20 Cube id:0 copy 0
; stop printing object 20x20 Cube id:0 copy 0
; printing object 20x20 Cube id:1 copy 0
; stop printing object 20x20 Cube id:1 copy 0
; printing object 20x20 Cube id:7 copy 0
; stop printing object 20x20 Cube id:7 copy 0
; printing object 20x20 Cube id:6 copy 0
; stop printing object 20x20 Cube id:6 copy 0
; printing object 20x20 Cube id:3 copy 0
; stop printing object 20x20 Cube id:3 copy 0
; printing object 20x20 Cube id:2 copy 0
; stop printing object 20x20 Cube id:2 copy 0
; printing object 20x20 Cube id:5 copy 0
; stop printing object 20x20 Cube id:5 copy 0

;TYPE:Custom
M862.3 P "MK3S" ; printer model check
M862.1 P0.4 ; nozzle diameter check
M115 U3.14.1 ; tell printer latest fw version
G90 ; use absolute coordinates
M83 ; extruder relative mode
M104 S200 ; set extruder temp
M140 S60 ; set bed temp
M190 S60 ; wait for bed temp
M109 S200 ; wait for extruder temp
G28 W ; home all without mesh bed level
G80 X10.9245 Y118.507 W225.646 H78.2836 ; mesh bed levelling

G1 Z0.2 F720
G1 Y-3 F1000 ; go outside print area
G92 E0
G1 X60 E9 F1000 ; intro line
G1 X100 E12.5 F1000 ; intro line

G92 E0
M221 S95

; Don't change E values below. Excessive value can damage the printer.

M907 E538 ; set extruder motor current
G21 ; set units to millimeters
G90 ; use absolute coordinates
M83 ; use relative distances for extrusion

M900 K0.05 ; Filament gcode LA 1.5
M900 K30 ; Filament gcode LA 1.0




M107
;LAYER_CHANGE
;Z:0.2
;HEIGHT:0.2
G1 E-1.2 F2100
G1 Z.6 F720
; printing object 20x20 Cube id:0 copy 0
G1 X30.137 Y195.216 F10800
G1 Z.2 F720
G1 E1.2 F2100
M204 S800
;TYPE:Perimeter
;WIDTH:0.419999
G1 F1200
G1 X11.712 Y195.216 E.5777
G1 X11.712 Y176.79 E.57773
G1 X30.137 Y176.79 E.5777
G1 X30.137 Y186.003 E.28887
G1 X30.137 Y195.156 E.28699
M204 S1000
G1 X30.514 Y195.593 F10800
M204 S800
;TYPE:External perimeter
G1 F1200
G1 X11.334 Y195.593 E.60137
G1 X11.334 Y176.413 E.60137
M73 Q0 S128
G1 X30.514 Y176.413 E.60137
G1 X30.514 Y186.003 E.30069
G1 X30.514 Y195.533 E.29881
M204 S1000
;WIPE_START
G1 F8640
G1 X30.514 Y195.593 E-.01385
G1 X25.377 Y195.593 E-1.18615
;WIPE_END
G1 Z.6 F720
G1 X29.968 Y177.733 F10800
G1 Z.2 F720
G1 E1.2 F2100
M204 S800
;TYPE:Solid infill
;WIDTH:0.425479
G1 F1200
G1 X29.364 Y177.129 E.02717
G1 X28.822 Y177.129 E.01724
G1 X29.798 Y178.105 E.04391
G1 X29.798 Y178.646 E.01721
G1 X28.281 Y177.129 E.06824
G1 X27.74 Y177.129 E.01721
G1 X29.798 Y179.187 E.09258
G1 X29.798 Y179.728 E.01721
G1 X27.199 Y177.129 E.11692
G1 X26.658 Y177.129 E.01721
G1 X29.798 Y180.269 E.14126
G1 X29.798 Y180.81 E.01721
G1 X26.117 Y177.129 E.16559
G1 X25.576 Y177.129 E.01721
G1 X29.798 Y181.351 E.18993
G1 X29.798 Y181.892 E.01721
G1 X25.035 Y177.129 E.21427
G1 X24.494 Y177.129 E.01721
G1 X29.798 Y182.433 E.23861
G1 X29.798 Y182.974 E.01721
G1 X23.953 Y177.129 E.26294
G1 X23.412 Y177.129 E.01721
G1 X29.798 Y183.515 E.28728
G1 X29.798 Y184.056 E.01721
G1 X22.871 Y177.129 E.31162
G1 X22.33 Y177.129 E.01721
G1 X29.798 Y184.597 E.33596
G1 X29.798 Y185.138 E.01721
G1 X21.789 Y177.129 E.36029
G1 X21.248 Y177.129 E.01721
G1 X29.798 Y185.679 E.38463
G1 X29.798 Y186.22 E.01721
G1 X20.707 Y177.129 E.40897
G1 X20.166 Y177.129 E.01721
G1 X29.798 Y186.761 E.43331
G1 X29.798 Y187.302 E.01721
G1 X19.625 Y177.129 E.45764
G1 X19.084 Y177.129 E.01721
G1 X29.798 Y187.843 E.48198
G1 X29.798 Y188.384 E.01721
G1 X18.543 Y177.129 E.50632
G1 X18.002 Y177.129 E.01721
G1 X29.798 Y188.925 E.53065
G1 X29.798 Y189.466 E.01721
G1 X17.461 Y177.129 E.55499
G1 X16.92 Y177.129 E.01721
G1 X29.798 Y190.007 E.57933
G1 X29.798 Y190.548 E.01721
G1 X16.379 Y177.129 E.60367
G1 X15.838 Y177.129 E.01721
G1 X29.798 Y191.089 E.628
G1 X29.798 Y191.63 E.01721
G1 X15.297 Y177.129 E.65234
G1 X14.756 Y177.129 E.01721
G1 X29.798 Y192.171 E.67668
G1 X29.798 Y192.712 E.01721
G1 X14.215 Y177.129 E.70102
G1 X13.674 Y177.129 E.01721
G1 X29.798 Y193.253 E.72535
G1 X29.798 Y193.794 E.01721
G1 X13.133 Y177.129 E.74969
G1 X12.592 Y177.129 E.01721
G1 X29.798 Y194.335 E.77403
G1 X29.798 Y194.876 E.01721
G1 X12.051 Y177.129 E.79837
G1 X12.051 Y177.67 E.01721
G1 X29.257 Y194.876 E.77403
G1 X28.716 Y194.876 E.01721
G1 X12.051 Y178.211 E.74969
G1 X12.051 Y178.752 E.01721
M73 P0 R125
G1 X28.175 Y194.876 E.72535
G1 X27.634 Y194.876 E.01721
G1 X12.051 Y179.293 E.70102
G1 X12.051 Y179.834 E.01721
G1 X27.093 Y194.876 E.67668
G1 X26.552 Y194.876 E.01721
G1 X12.051 Y180.375 E.65234
G1 X12.051 Y180.916 E.01721
G1 X26.011 Y194.876 E.628
G1 X25.47 Y194.876 E.01721
G1 X12.051 Y181.457 E.60367
G1 X12.051 Y181.998 E.01721
G1 X24.929 Y194.876 E.57933
G1 X24.388 Y194.876 E.01721
G1 X12.051 Y182.539 E.55499
G1 X12.051 Y183.08 E.01721
G1 X23.847 Y194.876 E.53065
G1 X23.306 Y194.876 E.01721
G1 X12.051 Y183.621 E.50632
G1 X12.051 Y184.162 E.01721
G1 X22.765 Y194.876 E.48198
G1 X22.224 Y194.876 E.01721
G1 X12.051 Y184.703 E.45764
G1 X12.051 Y185.245 E.01724
G1 X21.683 Y194.876 E.43328
G1 X21.142 Y194.876 E.01721
G1 X12.051 Y185.786 E.40895
G1 X12.051 Y186.327 E.01721
G1 X20.601 Y194.876 E.38461
G1 X20.06 Y194.876 E.01721
G1 X12.051 Y186.868 E.36027
G1 X12.051 Y187.409 E.01721
G1 X19.519 Y194.876 E.33593
G1 X18.978 Y194.876 E.01721
G1 X12.051 Y187.95 E.3116
G1 X12.051 Y188.491 E.01721
G1 X18.437 Y194.876 E.28726
G1 X17.896 Y194.876 E.01721
G1 X12.051 Y189.032 E.26292
G1 X12.051 Y189.573 E.01721
G1 X17.354 Y194.876 E.23856
G1 X16.813 Y194.876 E.01721
G1 X12.051 Y190.114 E.21422
G1 X12.051 Y190.655 E.01721
G1 X16.272 Y194.876 E.18989
G1 X15.731 Y194.876 E.01721
G1 X12.051 Y191.196 E.16555
G1 X12.051 Y191.737 E.01721
G1 X15.19 Y194.876 E.14121
G1 X14.649 Y194.876 E.01721
G1 X12.051 Y192.278 E.11687
G1 X12.051 Y192.819 E.01721
G1 X14.108 Y194.876 E.09254
G1 X13.567 Y194.876 E.01721
G1 X12.051 Y193.36 E.0682
G1 X12.051 Y193.901 E.01721
G1 X13.026 Y194.876 E.04386
G1 X12.485 Y194.876 E.01721
G1 X11.881 Y194.272 E.02717
M204 S1000
;WIPE_START
G1 F8640
G1 X12.485 Y194.876 E-.19723
G1 X13.026 Y194.876 E-.12492
G1 X12.051 Y193.901 E-.31838
G1 X12.051 Y193.36 E-.12492
G1 X13.382 Y194.691 E-.43455
;WIPE_END
G1 Z.6 F720
; stop printing object 20x20 Cube id:0 copy 0
; printing object 20x20 Cube id:5 copy 0
G1 X32.596 Y139.787 F10800
G1 Z.2 F720
G1 E1.2 F2100
M204 S800
;TYPE:Perimeter
;WIDTH:0.419999
G1 F1200
G1 X14.17 Y139.787 E.57773
G1 X14.17 Y121.361 E.57773
G1 X32.596 Y121.361 E.57773
G1 X32.596 Y130.574 E.28887
G1 X32.596 Y139.727 E.28699
M204 S1000
G1 X32.973 Y140.164 F10800
M204 S800
;TYPE:External perimeter
G1 F1200
G1 X13.793 Y140.164 E.60137
G1 X13.793 Y120.984 E.60137
G1 X32.973 Y120.984 E.60137
G1 X32.973 Y130.574 E.30069
G1 X32.973 Y140.104 E.29881
M204 S1000
;WIPE_START
G1 F8640
G1 X32.973 Y140.164 E-.01385
G1 X27.836 Y140.164 E-1.18615
;WIPE_END
G1 Z.6 F720
G1 X32.426 Y122.305 F10800
G1 Z.2 F720
G1 E1.2 F2100
M204 S800
;TYPE:Solid infill
;WIDTH:0.425479
G1 F1200
G1 X31.822 Y121.701 E.02717
G1 X31.281 Y121.701 E.01721
G1 X32.257 Y122.676 E.04388
G1 X32.257 Y123.217 E.01721
G1 X30.74 Y121.701 E.06822
G1 X30.199 Y121.701 E.01721
G1 X32.257 Y123.758 E.09256
G1 X32.257 Y124.299 E.01721
G1 X29.658 Y121.701 E.1169
G1 X29.117 Y121.701 E.01721
G1 X32.257 Y124.84 E.14123
G1 X32.257 Y125.381 E.01721
G1 X28.576 Y121.701 E.16557
G1 X28.035 Y121.701 E.01721
G1 X32.257 Y125.922 E.18991
G1 X32.257 Y126.463 E.01721
G1 X27.494 Y121.701 E.21425
G1 X26.953 Y121.701 E.01721
G1 X32.257 Y127.004 E.23858
G1 X32.257 Y127.545 E.01721
G1 X26.412 Y121.701 E.26292
G1 X25.871 Y121.701 E.01721
M73 Q0 S127
G1 X32.257 Y128.086 E.28726
G1 X32.257 Y128.627 E.01721
G1 X25.33 Y121.701 E.3116
G1 X24.789 Y121.701 E.01721
G1 X32.257 Y129.168 E.33593
G1 X32.257 Y129.709 E.01721
G1 X24.248 Y121.701 E.36027
G1 X23.707 Y121.701 E.01721
G1 X32.257 Y130.25 E.38461
G1 X32.257 Y130.791 E.01721
G1 X23.166 Y121.701 E.40895
G1 X22.625 Y121.701 E.01721
G1 X32.257 Y131.332 E.43328
G1 X32.257 Y131.873 E.01721
M73 P1 R125
G1 X22.084 Y121.701 E.45762
G1 X21.543 Y121.701 E.01721
M73 Q1 S127
G1 X32.257 Y132.414 E.48196
G1 X32.257 Y132.955 E.01721
G1 X21.002 Y121.701 E.5063
G1 X20.461 Y121.701 E.01721
G1 X32.257 Y133.496 E.53063
G1 X32.257 Y134.037 E.01721
G1 X19.92 Y121.701 E.55497
G1 X19.379 Y121.701 E.01721
G1 X32.257 Y134.578 E.57931
G1 X32.257 Y135.12 E.01724
G1 X18.838 Y121.701 E.60367
G1 X18.297 Y121.701 E.01721
G1 X32.257 Y135.661 E.628
G1 X32.257 Y136.202 E.01721
G1 X17.756 Y121.701 E.65234
G1 X17.214 Y121.701 E.01724
G1 X32.257 Y136.743 E.6767
G1 X32.257 Y137.284 E.01721
G1 X16.673 Y121.701 E.70104
G1 X16.132 Y121.701 E.01721
G1 X32.257 Y137.825 E.72538
G1 X32.257 Y138.366 E.01721
G1 X15.591 Y121.701 E.74971
G1 X15.05 Y121.701 E.01721
G1 X32.257 Y138.907 E.77405
G1 X32.256 Y139.448 E.01721
G1 X14.509 Y121.701 E.79837
G1 X14.509 Y122.242 E.01721
G1 X31.715 Y139.448 E.77403
G1 X31.174 Y139.448 E.01721
G1 X14.509 Y122.783 E.74969
G1 X14.509 Y123.324 E.01721
G1 X30.633 Y139.448 E.72535
G1 X30.092 Y139.448 E.01721
G1 X14.509 Y123.865 E.70102
G1 X14.509 Y124.406 E.01721
G1 X29.551 Y139.448 E.67668
G1 X29.01 Y139.448 E.01721
G1 X14.509 Y124.947 E.65234
G1 X14.509 Y125.488 E.01721
G1 X28.469 Y139.448 E.628
G1 X27.928 Y139.448 E.01721
G1 X14.509 Y126.029 E.60367
G1 X14.509 Y126.57 E.01721
M73 P1 R124
G1 X27.387 Y139.448 E.57933
G1 X26.846 Y139.448 E.01721
G1 X14.509 Y127.111 E.55499
G1 X14.509 Y127.652 E.01721
G1 X26.305 Y139.448 E.53065
G1 X25.764 Y139.448 E.01721
G1 X14.509 Y128.193 E.50632
G1 X14.509 Y128.734 E.01721
G1 X25.223 Y139.448 E.48198
G1 X24.682 Y139.448 E.01721
G1 X14.509 Y129.275 E.45764
G1 X14.509 Y129.816 E.01721
G1 X24.141 Y139.448 E.43331
G1 X23.6 Y139.448 E.01721
G1 X14.509 Y130.357 E.40897
G1 X14.509 Y130.898 E.01721
G1 X23.059 Y139.448 E.38463
G1 X22.518 Y139.448 E.01721
G1 X14.509 Y131.439 E.36029
G1 X14.509 Y131.98 E.01721
G1 X21.977 Y139.448 E.33596
G1 X21.436 Y139.448 E.01721
G1 X14.509 Y132.521 E.31162
G1 X14.509 Y133.062 E.01721
G1 X20.895 Y139.448 E.28728
G1 X20.354 Y139.448 E.01721
G1 X14.509 Y133.603 E.26294
G1 X14.509 Y134.144 E.01721
G1 X19.813 Y139.448 E.23861
G1 X19.272 Y139.448 E.01721
G1 X14.509 Y134.685 E.21427
G1 X14.509 Y135.226 E.01721
G1 X18.731 Y139.448 E.18993
G1 X18.19 Y139.448 E.01721
G1 X14.509 Y135.767 E.16559
G1 X14.509 Y136.308 E.01721
G1 X17.649 Y139.448 E.14126
G1 X17.108 Y139.448 E.01721
G1 X14.509 Y136.849 E.11692
G1 X14.509 Y137.39 E.01721
G1 X16.567 Y139.448 E.09258
G1 X16.026 Y139.448 E.01721
G1 X14.509 Y137.931 E.06824
G1 X14.509 Y138.472 E.01721
G1 X15.485 Y139.448 E.04391
G1 X14.944 Y139.448 E.01721
G1 X14.34 Y138.844 E.02717
M204 S1000
;WIPE_START
G1 F8640
G1 X14.944 Y139.448 E-.19723
G1 X15.485 Y139.448 E-.12492
G1 X14.509 Y138.472 E-.31871
G1 X14.509 Y137.931 E-.12492
G1 X15.839 Y139.26 E-.43422
;WIPE_END
G1 Z.6 F720
; stop printing object 20x20 Cube id:5 copy 0
; printing object 20x20 Cube id:6 copy 0
G1 X86.502 Y138.248 F10800
G1 Z.2 F720
G1 E1.2 F2100
M204 S800
;TYPE:Perimeter
;WIDTH:0.419999
G1 F1200
G1 X68.076 Y138.248 E.57773
G1 X68.076 Y119.822 E.57773
G1 X86.502 Y119.822 E.57773
G1 X86.502 Y129.035 E.28887
G1 X86.502 Y138.188 E.28699
M204 S1000
G1 X86.879 Y138.625 F10800
M204 S800
;TYPE:External perimeter
G1 F1200
G1 X67.699 Y138.625 E.60137
G1 X67.699 Y119.445 E.60137
G1 X86.879 Y119.445 E.60137
G1 X86.879 Y129.035 E.30069
G1 X86.879 Y138.565 E.29881
M204 S1000
;WIPE_START
G1 F8640
G1 X86.879 Y138.625 E-.01385
G1 X81.742 Y138.625 E-1.18615
;WIPE_END
G1 Z.6 F720
G1 X86.332 Y120.766 F10800
G1 Z.2 F720
G1 E1.2 F2100
M204 S800
;TYPE:Solid infill
;WIDTH:0.425479
G1 F1200
G1 X85.728 Y120.162 E.02717
G1 X85.187 Y120.162 E.01721
G1 X86.162 Y121.137 E.04386
G1 X86.162 Y121.678 E.01721
G1 X84.646 Y120.162 E.0682
G1 X84.105 Y120.162 E.01721
G1 X86.162 Y122.219 E.09254
G1 X86.162 Y122.76 E.01721
G1 X83.564 Y120.162 E.11687
G1 X83.023 Y120.162 E.01721
G1 X86.162 Y123.301 E.14121
G1 X86.162 Y123.842 E.01721
G1 X82.482 Y120.162 E.16555
G1 X81.941 Y120.162 E.01721
G1 X86.162 Y124.383 E.18989
G1 X86.162 Y124.924 E.01721
G1 X81.4 Y120.162 E.21422
G1 X80.859 Y120.162 E.01721
G1 X86.162 Y125.465 E.23856
G1 X86.162 Y126.006 E.01721
G1 X80.317 Y120.162 E.26292
G1 X79.776 Y120.162 E.01721
G1 X86.162 Y126.547 E.28726
G1 X86.162 Y127.088 E.01721
G1 X79.235 Y120.162 E.3116
G1 X78.694 Y120.162 E.01721
G1 X86.162 Y127.629 E.33593
G1 X86.162 Y128.17 E.01721
G1 X78.153 Y120.162 E.36027
G1 X77.612 Y120.162 E.01721
G1 X86.162 Y128.712 E.38463
G1 X86.162 Y129.253 E.01721
G1 X77.071 Y120.162 E.40897
G1 X76.53 Y120.162 E.01721
G1 X86.162 Y129.794 E.43331
G1 X86.162 Y130.335 E.01721
G1 X75.989 Y120.162 E.45764
G1 X75.448 Y120.162 E.01721
G1 X86.162 Y130.876 E.48198
G1 X86.162 Y131.417 E.01721
G1 X74.907 Y120.162 E.50632
G1 X74.366 Y120.162 E.01721
G1 X86.162 Y131.958 E.53065
M73 Q1 S126
G1 X86.162 Y132.499 E.01721
G1 X73.825 Y120.162 E.55499
G1 X73.284 Y120.162 E.01721
G1 X86.162 Y133.04 E.57933
G1 X86.162 Y133.581 E.01721
G1 X72.743 Y120.162 E.60367
G1 X72.202 Y120.162 E.01721
G1 X86.162 Y134.122 E.628
G1 X86.162 Y134.663 E.01721
G1 X71.661 Y120.162 E.65234
G1 X71.12 Y120.162 E.01721
G1 X86.162 Y135.204 E.67668
G1 X86.162 Y135.745 E.01721
G1 X70.579 Y120.162 E.70102
G1 X70.038 Y120.162 E.01721
G1 X86.162 Y136.286 E.72535
G1 X86.162 Y136.827 E.01721
G1 X69.497 Y120.162 E.74969
G1 X68.956 Y120.162 E.01721
G1 X86.162 Y137.368 E.77403
G1 X86.162 Y137.909 E.01721
G1 X68.415 Y120.162 E.79837
